src/assets/icons/metamask.svg

<svg
  xmlns="http://www.w3.org/2000/svg"
  width="106"
  height="20"
  viewBox="0 0 106 20"
  fill="none"
>
  <g clip-path="url(#clip0_76_55)">
    <path
      d="M91.9612 5.23438C92.6005 5.23438 93.1988 5.44542 93.7249 5.84313C94.2746 6.25708 94.5739 6.90646 94.6387 7.68583C94.6417 7.69631 94.6407 7.70755 94.6358 7.71729C94.631 7.72703 94.6226 7.73455 94.6124 7.73833L94.5901 7.7425H93.3446C93.3264 7.7425 93.3081 7.73333 93.3001 7.71854L93.2959 7.70188C93.1502 6.57375 91.7838 6.26521 90.959 6.81729C90.3844 7.20687 90.2712 8.09979 90.8215 8.55417C91.0368 8.73292 91.2848 8.87542 91.5366 9.01313L92.2026 9.37771L92.7874 9.67958C93.0796 9.83063 93.3688 9.98688 93.6439 10.1696C94.5901 10.8027 94.9052 11.7606 94.735 12.8238C94.5416 13.9117 93.5872 14.9588 91.7434 14.9588C91.0395 14.9588 90.3602 14.764 89.7377 14.2931C89.0746 13.7979 88.8319 13.2542 88.8319 12.2719C88.8319 12.2537 88.8456 12.2354 88.8625 12.2275L88.8804 12.2233H90.2306C90.2548 12.2233 90.2793 12.2475 90.2793 12.2719C90.2793 12.3612 90.2954 12.5642 90.3277 12.6698C90.514 13.2542 91.0474 13.6275 91.7353 13.6681C92.3659 13.7088 92.9966 13.3598 93.2392 12.8563C93.5063 12.3044 93.3121 11.6063 92.6976 11.225L92.6187 11.1767L92.327 11.0087L91.9751 10.815L90.2762 9.91375L90.1731 9.85583L90.1416 9.83687C88.3706 8.73271 88.6698 5.23438 91.9612 5.23438ZM100.033 5.42104C100.051 5.42104 100.069 5.43479 100.077 5.45188L100.081 5.46979V9.1225C100.081 9.155 100.112 9.17708 100.141 9.16792L100.162 9.155L103.729 5.43729C103.734 5.43141 103.74 5.42671 103.747 5.42354L103.761 5.42104H105.484C105.516 5.42104 105.538 5.45229 105.529 5.48146L105.516 5.50229L101.31 9.88563C101.305 9.89154 101.301 9.89868 101.299 9.90642C101.297 9.91417 101.297 9.92227 101.299 9.93L101.31 9.95042L105.985 14.7963C106.011 14.8158 106 14.8563 105.978 14.8756L105.96 14.8858H104.238L104.222 14.8806L104.206 14.8694L100.162 10.681C100.143 10.655 100.103 10.6654 100.087 10.6915L100.081 10.7135V14.8371C100.081 14.8552 100.068 14.8735 100.051 14.8815L100.033 14.8856H98.6818C98.6638 14.8856 98.6456 14.8721 98.6375 14.855L98.6334 14.8371V5.46979C98.6334 5.45146 98.6471 5.43333 98.664 5.42521L98.6818 5.42104H100.033ZM31.3397 5.41292C31.3559 5.41292 31.3687 5.41667 31.3776 5.42625L31.3884 5.44542L32.4962 9.11438C32.4986 9.12264 32.5031 9.13014 32.5092 9.1362C32.5153 9.14225 32.5228 9.14665 32.531 9.14898C32.5392 9.15131 32.5479 9.1515 32.5563 9.14953C32.5646 9.14756 32.5723 9.14349 32.5786 9.13771L32.5933 9.11438L33.7014 5.44562C33.707 5.43358 33.7165 5.42376 33.7283 5.41771L33.7498 5.41292H35.7959C35.8141 5.41292 35.8323 5.42667 35.8402 5.44375L35.8443 5.46167V14.8292C35.8443 14.8473 35.8307 14.8656 35.8137 14.8735L35.7959 14.8777H34.4452C34.4272 14.8777 34.409 14.8642 34.4009 14.8471L34.3968 14.8292V7.71042C34.3968 7.66292 34.3407 7.64375 34.3125 7.67167L34.2997 7.69417L33.1838 11.3875L33.1028 11.6471C33.0971 11.659 33.0877 11.6688 33.0759 11.6748L33.0544 11.6796H32.0192C32.0029 11.6796 31.9902 11.676 31.9813 11.6665L31.9706 11.6471L31.8898 11.3875L30.7739 7.69417C30.7603 7.65354 30.7019 7.6525 30.6828 7.68604L30.6766 7.71042V14.8292C30.6766 14.8473 30.663 14.8656 30.646 14.8735L30.6282 14.8777H29.2775C29.2593 14.8777 29.2411 14.8642 29.2332 14.8471L29.2291 14.8292V5.46167C29.2291 5.44333 29.2427 5.42521 29.2597 5.41708L29.2775 5.41292H31.3397ZM70.5548 5.41292C70.5709 5.41292 70.5836 5.41667 70.5925 5.42625L70.6032 5.44542L71.7115 9.11438C71.7139 9.1226 71.7183 9.13007 71.7244 9.13609C71.7305 9.14212 71.738 9.1465 71.7462 9.14882C71.7544 9.15115 71.763 9.15136 71.7713 9.14941C71.7796 9.14747 71.7873 9.14344 71.7937 9.13771L71.8086 9.11438L72.916 5.44562C72.9216 5.43358 72.9311 5.42376 72.9429 5.41771L72.9644 5.41292H75.0188C75.037 5.41292 75.0552 5.42667 75.0631 5.44375L75.0672 5.46167V14.8292C75.0672 14.8473 75.0538 14.8656 75.0366 14.8735L75.0188 14.8777H73.6685C73.6503 14.8777 73.6321 14.8642 73.6242 14.8471L73.6201 14.8292V7.71042C73.6201 7.66292 73.5638 7.64375 73.5356 7.67167L73.523 7.69417L72.4067 11.3875L72.3259 11.6471C72.3202 11.6591 72.3106 11.6688 72.2988 11.6748L72.2773 11.6796H71.2421C71.2258 11.6796 71.2131 11.676 71.2042 11.6665L71.1935 11.6471L71.1125 11.3875L69.997 7.69417C69.9834 7.65354 69.925 7.6525 69.9059 7.68604L69.8997 7.71042V14.8292C69.8997 14.8473 69.8863 14.8656 69.8691 14.8735L69.8513 14.8777H68.5004C68.4822 14.8777 68.464 14.8642 68.4561 14.8471L68.452 14.8292V5.46167C68.452 5.44333 68.4654 5.42521 68.4826 5.41708L68.5004 5.41292H70.5548ZM55.5448 5.41292C55.5547 5.41237 55.5645 5.41509 55.5727 5.42065C55.5809 5.42622 55.5871 5.43433 55.5904 5.44375L55.5933 5.46167V6.63042C55.5933 6.64875 55.5796 6.66708 55.5626 6.675L55.5448 6.67917H53.0782V14.8292C53.0782 14.8473 53.0646 14.8656 53.0474 14.8735L53.0296 14.8777H51.6791C51.6609 14.8777 51.6427 14.8642 51.6348 14.8471L51.6307 14.8292V6.67917H49.1637C49.1455 6.67917 49.1273 6.66542 49.1194 6.64833L49.1152 6.63042V5.46167C49.1152 5.44312 49.1289 5.425 49.1459 5.41687L49.1637 5.41271L55.5448 5.41292ZM62.2004 5.38042C62.2168 5.38042 62.2294 5.38396 62.2383 5.39354L62.2491 5.41292L64.7883 14.8125C64.7912 14.8239 64.7901 14.8359 64.7854 14.8467C64.7807 14.8574 64.7725 14.8663 64.7622 14.8719L64.7399 14.8775H63.511C63.4975 14.8761 63.4848 14.8702 63.4749 14.8608L63.4625 14.845L62.7265 12.1096C62.7208 12.0976 62.7114 12.0879 62.6996 12.0819L62.6781 12.0771H59.9604C59.944 12.0771 59.9314 12.0806 59.9225 12.0902L59.9117 12.1096L59.1759 14.845C59.1702 14.857 59.1608 14.8667 59.149 14.8727L59.1273 14.8775H57.8981C57.8865 14.8773 57.8753 14.8731 57.8664 14.8657C57.8575 14.8582 57.8514 14.8479 57.8491 14.8365L57.8495 14.8125L60.3889 5.41292C60.3946 5.40095 60.4041 5.39121 60.4158 5.38521L60.4374 5.38042H62.2004ZM83.1626 5.38042C83.1787 5.38042 83.1913 5.38396 83.2002 5.39354L83.2112 5.41292L85.7503 14.8125C85.7531 14.8239 85.752 14.836 85.7472 14.8467C85.7425 14.8575 85.7343 14.8663 85.724 14.8719L85.7016 14.8775H84.4729C84.4657 14.8775 84.4587 14.8761 84.4522 14.8732C84.4456 14.8703 84.4398 14.8661 84.435 14.8608L84.4242 14.845L83.6884 12.1096C83.6827 12.0976 83.6733 12.0879 83.6615 12.0819L83.6398 12.0771H80.9225C80.9063 12.0771 80.8937 12.0806 80.8848 12.0902L80.874 12.1096L80.1383 14.845C80.1326 14.857 80.1231 14.8667 80.1113 14.8727L80.0896 14.8775H78.8603C78.8487 14.8773 78.8375 14.8731 78.8285 14.8657C78.8196 14.8582 78.8135 14.8479 78.8112 14.8365L78.8116 14.8125L81.3508 5.41292C81.3565 5.40095 81.366 5.39121 81.3778 5.38521L81.3995 5.38042H83.1626ZM45.4684 5.42104C45.4864 5.42104 45.5046 5.43479 45.5125 5.45188L45.5166 5.46979V6.63854C45.5166 6.65688 45.5032 6.67521 45.486 6.68312L45.4682 6.68729H41.376C41.3578 6.68729 41.3396 6.70104 41.3317 6.71813L41.3276 6.73604V9.22C41.3276 9.23813 41.3412 9.25646 41.3582 9.26438L41.376 9.26854H44.9748C44.993 9.26854 45.0113 9.28229 45.0193 9.29938L45.0235 9.31729V10.486C45.0235 10.5044 45.0098 10.5227 44.9926 10.5306L44.9748 10.5348H41.376C41.3578 10.5348 41.3396 10.5485 41.3317 10.5656L41.3276 10.5835V13.4896C41.3276 13.5113 41.3348 13.5256 41.3468 13.5354L41.3679 13.5465H45.6379C45.6562 13.5465 45.6744 13.56 45.6825 13.5773L45.6866 13.595V14.829C45.6866 14.8471 45.6729 14.8654 45.656 14.8733L45.6379 14.8775H39.9284C39.9102 14.8775 39.892 14.864 39.8841 14.8467L39.88 14.829V5.46979C39.88 5.45146 39.8937 5.43333 39.9106 5.42521L39.9284 5.42104H45.4684ZM61.3678 7.07688C61.3654 7.06861 61.3609 7.06111 61.3548 7.05505C61.3487 7.049 61.3412 7.0446 61.333 7.04227C61.3247 7.03994 61.3161 7.03975 61.3077 7.04172C61.2994 7.04369 61.2917 7.04776 61.2854 7.05354L61.2707 7.07688L60.284 10.7377C60.2778 10.7621 60.2902 10.7865 60.31 10.7971L60.3324 10.8027H62.3058C62.3174 10.8025 62.3285 10.7983 62.3374 10.7908C62.3463 10.7834 62.3524 10.7731 62.3547 10.7617L62.3543 10.7377L61.3678 7.07688ZM82.3297 7.07688C82.3273 7.06861 82.3228 7.06111 82.3167 7.05505C82.3106 7.049 82.3031 7.0446 82.2949 7.04227C82.2867 7.03994 82.278 7.03975 82.2696 7.04172C82.2613 7.04369 82.2536 7.04776 82.2473 7.05354L82.2326 7.07688L81.2459 10.7377C81.2397 10.7621 81.2521 10.7865 81.272 10.7971L81.2943 10.8027H83.2677C83.2793 10.8025 83.2905 10.7983 83.2994 10.7909C83.3084 10.7834 83.3145 10.7731 83.3168 10.7617L83.3164 10.7377L82.3297 7.07688Z"
      fill="#236A3C"
    />
    <path
      d="M20.6535 0L11.5809 6.75521L13.268 2.77417L20.6535 0Z"
      fill="#E17726"
    />
    <path
      d="M0.511355 0.00793457L7.87691 2.7746L9.47891 6.80793L0.511355 0.00793457ZM17.0024 14.3665L21.0122 14.4433L19.6108 19.234L14.7178 17.8783L17.0024 14.3665ZM4.14103 14.3665L6.41713 17.8783L1.53223 19.2342L0.139526 14.4433L4.14103 14.3665Z"
      fill="#E27625"
    />
    <path
      d="M9.26114 5.78065L9.4251 11.1067L4.52136 10.8821L5.91613 8.76461L5.93394 8.74419L9.26114 5.78065ZM11.8316 5.72107L15.2096 8.7444L15.2272 8.76482L16.6219 10.8821L11.7194 11.1067L11.8316 5.72107ZM6.56062 14.3819L9.23816 16.4813L6.12792 17.9923L6.56062 14.3819ZM14.5833 14.3817L15.0071 17.9923L11.9055 16.4811L14.5833 14.3817Z"
      fill="#E27625"
    />
    <path
      d="M11.974 16.2833L15.1213 17.8169L12.1937 19.2171L12.2241 18.2917L11.974 16.2833ZM9.16856 16.2839L8.9284 18.2764L8.94807 19.216L6.01361 17.8169L9.16856 16.2839Z"
      fill="#D5BFB2"
    />
    <path
      d="M8.25973 11.8016L9.08226 13.541L6.28217 12.7156L8.25973 11.8016ZM12.8836 11.8018L14.8707 12.7156L12.0614 13.5408L12.8836 11.8018Z"
      fill="#233447"
    />
    <path
      d="M6.77468 14.3642L6.32211 18.1075L3.89612 14.446L6.77468 14.3642ZM14.369 14.3642L17.2478 14.446L14.8127 18.1077L14.369 14.3642ZM16.6929 10.6704L14.5978 12.819L12.9827 12.0762L12.2093 13.7121L11.7024 10.899L16.6929 10.6704ZM4.44972 10.6704L9.44104 10.899L8.93402 13.7121L8.16055 12.0765L6.55378 12.819L4.44972 10.6704Z"
      fill="#CC6228"
    />
    <path
      d="M4.30853 10.2296L6.67863 12.6498L6.76082 15.0392L4.30853 10.2296ZM16.8374 10.2252L14.3808 15.0433L14.4731 12.6498L16.8374 10.2252ZM9.32511 10.3769L9.42055 10.9813L9.65636 12.4865L9.50481 17.1094L8.78827 13.3956L8.78807 13.3573L9.32511 10.3769ZM11.8171 10.3686L12.3556 13.3573L12.3554 13.3956L11.6372 17.1188L11.6087 16.1875L11.4967 12.459L11.8171 10.3686Z"
      fill="#E27525"
    />
    <path
      d="M14.6839 12.5535L14.6038 14.6296L12.1032 16.59L11.5979 16.2306L12.1643 13.2937L14.6839 12.5535ZM6.46826 12.5537L8.97914 13.2939L9.54557 16.2306L9.04021 16.59L6.53969 14.6294L6.46826 12.5537Z"
      fill="#F5841F"
    />
    <path
      d="M5.53522 17.3586L8.73406 18.8838L8.7206 18.2323L8.98829 17.9961H12.1544L12.4316 18.2317L12.4111 18.8825L15.5899 17.3623L14.0432 18.6486L12.1728 19.9413H8.96262L7.09354 18.6431L5.53522 17.3586Z"
      fill="#C0AC9D"
    />
    <path
      d="M11.7449 16.0804L12.1972 16.4019L12.4622 18.5298L12.0786 18.204H9.06608L8.6897 18.5365L8.94621 16.4021L9.39857 16.0804H11.7449Z"
      fill="#161616"
    />
    <path
      d="M20.0545 0.187073L21.1435 3.47457L20.4634 6.79874L20.9476 7.17478L20.2924 7.67791L20.7849 8.06062L20.1328 8.65832L20.5332 8.9502L19.4705 10.1989L15.112 8.92207L15.0744 8.90166L11.9337 6.23561L20.0545 0.187073ZM1.08898 0.187073L9.20999 6.23561L6.06912 8.90166L6.03144 8.92207L1.67302 10.1989L0.610535 8.9502L1.01052 8.65853L0.358578 8.06062L0.850277 7.67832L0.185086 7.17374L0.687758 6.79749L0 3.47478L1.08898 0.187073Z"
      fill="#763E1A"
    />
    <path
      d="M14.8988 8.64273L19.5168 9.99585L21.0172 14.6488H17.0592L14.3317 14.6834L16.3151 10.7931L14.8988 8.64273ZM6.2447 8.64273L4.82798 10.7931L6.81175 14.6834L4.08577 14.6488H0.134583L1.62666 9.99585L6.2447 8.64273ZM13.4943 2.75189L12.2024 6.26252L11.9283 11.0048L11.8236 12.4913L11.8153 16.2886H9.32822L9.32014 12.4984L9.21497 11.0036L8.94066 6.26252L7.6492 2.75189H13.4943Z"
      fill="#F5841F"
    />
  </g>
  <defs>
    <clipPath id="clip0_76_55">
      <rect width="106" height="20" fill="white" />
    </clipPath>
  </defs>
</svg>

<svg
  xmlns="http://www.w3.org/2000/svg"
  fill="none"
  viewBox="0 0 20 20"
  width="20"
  height="20"
>
  <g clip-path="url(#metamask_svg__a)">
    <path fill="#E17726" d="M20.654 0 11.58 6.755l1.687-3.98L20.654 0Z" />
    <path
      fill="#E27625"
      d="m.511.008 7.366 2.767 1.602 4.033L.51.008Zm16.491 14.359 4.01.076-1.401 4.791-4.893-1.356 2.284-3.511Zm-12.861 0 2.276 3.511-4.885 1.356-1.392-4.79 4.001-.078Z"
    />
    <path
      fill="#E27625"
      d="m9.261 5.78.164 5.327-4.904-.225 1.395-2.117.018-.02L9.26 5.78Zm2.57-.059 3.379 3.023.017.02 1.395 2.118-4.903.225.113-5.386Zm-5.27 8.66 2.677 2.1-3.11 1.511.433-3.61Zm8.022 0 .424 3.611-3.101-1.51 2.677-2.1Z"
    />
    <path
      fill="#D5BFB2"
      d="m11.974 16.283 3.147 1.534-2.927 1.4.03-.925-.25-2.009Zm-2.805 0-.24 1.993.02.94-2.935-1.4 3.155-1.532Z"
    />
    <path
      fill="#233447"
      d="m8.26 11.802.822 1.739-2.8-.825 1.978-.914Zm4.624 0 1.987.914-2.81.825.823-1.74Z"
    />
    <path
      fill="#CC6228"
      d="m6.775 14.364-.453 3.744-2.426-3.662 2.879-.082Zm7.594 0 2.879.082-2.435 3.662-.444-3.744Zm2.324-3.694-2.095 2.149-1.615-.743-.774 1.636-.507-2.813 4.99-.229Zm-12.243 0 4.991.229-.507 2.813-.773-1.636-1.607.743L4.45 10.67Z"
    />
    <path
      fill="#E27525"
      d="m4.309 10.23 2.37 2.42.082 2.39-2.452-4.81Zm12.528-.005-2.456 4.818.092-2.393 2.364-2.425Zm-7.512.152.096.604.235 1.505-.151 4.623-.717-3.713v-.039l.537-2.98Zm2.492-.008.539 2.988v.039l-.719 3.723-.028-.931-.112-3.729.32-2.09Z"
    />
    <path
      fill="#F5841F"
      d="m14.684 12.553-.08 2.077-2.5 1.96-.506-.36.566-2.936 2.52-.74Zm-8.216 0 2.511.74.567 2.938-.506.359-2.5-1.96-.072-2.076Z"
    />
    <path
      fill="#C0AC9D"
      d="m5.535 17.359 3.2 1.525-.014-.652.267-.236h3.166l.278.236-.02.65 3.178-1.52-1.547 1.287-1.87 1.292h-3.21l-1.87-1.298-1.558-1.284Z"
    />
    <path
      fill="#161616"
      d="m11.745 16.08.452.322.265 2.128-.383-.326H9.066l-.376.332.256-2.134.453-.322h2.346Z"
    />
    <path
      fill="#763E1A"
      d="m20.055.187 1.088 3.288-.68 3.324.485.376-.656.503.493.383-.652.597.4.292-1.063 1.25-4.358-1.277-.038-.02-3.14-2.666 8.12-6.049Zm-18.966 0L9.21 6.236 6.07 8.902l-.039.02L1.673 10.2.611 8.95l.4-.291-.652-.598.491-.383-.665-.504.503-.377L0 3.475 1.089.187Z"
    />
    <path
      fill="#F5841F"
      d="m14.899 8.643 4.618 1.353 1.5 4.653H17.06l-2.727.034 1.983-3.89-1.416-2.15Zm-8.654 0-1.417 2.15 1.984 3.89-2.726-.034H.135l1.492-4.653 4.618-1.353Zm7.25-5.891-1.293 3.51-.274 4.743-.104 1.486-.009 3.798H9.328l-.008-3.79-.105-1.495-.274-4.741-1.292-3.511h5.845Z"
    />
  </g>
  <defs>
    <clipPath id="metamask_svg__a">
      <path fill="#fff" d="M0 0h106v20H0z" />
    </clipPath>
  </defs>
</svg>
